/* XPM */
static char * bitcoin32_xpm[] = {
"32 32 9 1",
" 	c None",
".	c #019993",
"+	c #019892",
"@	c #019992",
"#	c #019893",
"$	c #019994",
"%	c #019792",
"&	c #019991",
"*	c #019891",
"            .+....@@            ",
"         .#............         ",
"       @@................       ",
"      .......@#+.#+#.....+      ",
"     @...@+$        +......     ",
"    ++++             ++....#    ",
"   +.+                #+....+   ",
"  @...       @++.      +.....#  ",
"  @...#   #@+.#+        .....@  ",
" @....+   +..@+   @#    +.....+ ",
" #....+    #+   $@..#   #.....@ ",
" #....+        .....+   #.....+ ",
"#......@      .###@#.    .......",
"+......@                 ......+",
"+......#    +.@          +.....+",
"#.......    @...+#   #    ......",
"#........   +..#@  .+.    +....+",
"#........   #..   #+..#   .....@",
"#.......@    #   ......   +....+",
"@.......+       .+#@#.#   %....@",
" ........#                #...+ ",
" +.......@    #@&         ....# ",
" *+.......    +...+.+    $+..+# ",
"  @.......@   #...#+     #...#  ",
"   +.......   #+        +...+   ",
"   @+.....@            ....+#   ",
"    #......          .#.....    ",
"     .+....@     *+#......@     ",
"      +..... &##+.......#.      ",
"        ++............+#        ",
"          @#+......+#@          ",
"             +###+.             "};
