/* XPM */
static char * bitcoin128_xpm[] = {
"128 128 17 1",
" 	c None",
".	c #019791",
"+	c #019993",
"@	c #019992",
"#	c #019892",
"$	c #019893",
"%	c #019891",
"&	c #019994",
"*	c #019991",
"=	c #029892",
"-	c #019792",
";	c #019A93",
">	c #019A92",
",	c #019894",
"'	c #029A92",
")	c #019A94",
"!	c #019793",
"                                                      .++@#+++++++++++++$#%                                                     ",
"                                                 #+###++++++++++++++++++++++++&                                                 ",
"                                             ##$#++++++++++++++++++++++++++++++##@+                                             ",
"                                          +$#++++++++++++++++++++++++++++++++++++++$@#                                          ",
"                                       &#+++++++++++++++++++++++++++++++++++++++++++++++$                                       ",
"                                     +$#++++++++++++++++++++++++++++++++++++++++++++++++#$#                                     ",
"                                   +$++++++++++++++++++++++++++++++++++++++++++++++++++++++$+                                   ",
"                                 +$++++++++++++++++++++++++++++++++++++++++++++++++++++++++++@+                                 ",
"                               *$+++++++++++++++++++++++++++++++++++++++++++++++++++++++++++++#@#                               ",
"                              +#++++++++++++++++++++++++++++++++++++++++++++++++++++++++++++++++#@                              ",
"                            @@++++++++++++++++++++++++++++++++++++++++++++++++++++++++++++++++++++$@                            ",
"                           +++++++++++++++++++++++++++++++++++++++++++++++++++++++++++++++++++++++++$                           ",
"                         $$+++++++++++++++++++++++++++++++++++++++++++++++++++++++++++++++++++++++++++                          ",
"                        +#++++++++++++++++++++++++++++++++++++++++++++++++++++++++++++++++++++++++++++++                        ",
"                       ##++++++++++++++++++++++++++++++++$+$$#$@+##+@@+$+++++++++++++++++++++++++++++++++                       ",
"                      $+++++++++++++++++++++++++++++++$#+                #+$$++++++++++++++++++++++++++++#                      ",
"                     #++++++++++++++++++++++++++++@@$                        +@+++++++++++++++++++++++++++#                     ",
"                    @++++++++++++++++++++++++###@                              @#++++++++++++++++++++++++++$                    ",
"                   $++++++++++++++++++++++$++                                    ##++++++++++++++++++++++++++                   ",
"                  ++++++++++++++++++++#$$+                                         ##++++++++++++++++++++++++$                  ",
"                 $+++++++++++++++++##+                                              +#++++++++++++++++++++++++@                 ",
"                @+++++++++++++++++#                                                  $#++++++++++++++++++++++++#                ",
"               #++++++++++++#$@                                                        @+++++++++++++++++++++++++               ",
"              #++++++++#$+@                                                             #+++++++++++++++++++++++#+              ",
"             #++++++++++                                                                $+++++++++++++++++++++++++@             ",
"             ++++++++++$                                                                 #++++++++++++++++++++++++@             ",
"            $++++++++++#                                                                  #+++++++++++++++++++++++++            ",
"           ++++++++++++#                                     =-$#$=                        #+++++++++++++++++++++++++           ",
"          $#++++++++++++;                               +@$$+++++++#$+>                    +#++++++++++++++++++++++++           ",
"          $+++++++++++++@                           #$$++++++++++++++#@                     ++++++++++++++++++++++++++          ",
"         #+++++++++++++++                        $#+++++++++++++++++$                       .+++++++++++++++++++++++++#         ",
"         #+++++++++++++++                    ##$++++++++++++++++++@$                         +++++++++++++++++++++++++$         ",
"        +++++++++++++++++@                >#$++++++++++++++++++++#                           $#++++++++++++++++++++++++#        ",
"        +++++++++++++++++$              $++++++++++++++++++++++$+                             #+++++++++++++++++++++++++        ",
"       #+++++++++++++++++#              $++++++++++++++++++++##               &               -+++++++++++++++++++++++++#       ",
"       #++++++++++++++++++*             +++++++++++++++++++++#              +##$               +++++++++++++++++++++++++++      ",
"      ++++++++++++++++++++$              +++++++++++++++++++              @#+++$               $++++++++++++++++++++++++++      ",
"      #++++++++++++++++++++              @+++++++++++++++$$              ##+++++#              ++++++++++++++++++++++++++#      ",
"     #+++++++++++++++++++++              #++++++++++++++@              @$+++++++#               $+++++++++++++++++++++++++#     ",
"     @+++++++++++++++++++++#             +++++++++++++++             +#+++++++++#$              ++++++++++++++++++++++++++#     ",
"    $++++++++++++++++++++++#              +++++++++++@$             $++++++++++++$              +++++++++++++++++++++++++++@    ",
"    @++++++++++++++++++++++@              $+++++++++$             @+++++++++++++++               ++++++++++++++++++++++++++$    ",
"    #++++++++++++++++++++++#              $+++++++@;             $+++++++++++++++++              $+++++++++++++++++++++++++#$   ",
"   +++++++++++++++++++++++++#             @+++++#$             #++++++++++++++++++@              +++++++++++++++++++++++++++#   ",
"   $+++++++++++++++++++++++++              ++++$$             $++++++++++++++++++++              #++++++++++++++++++++++++++@   ",
"   +++++++++++++++++++++++++$              #++@             $#+++++++++++++++++++++$              $+++++++++++++++++++++++++#*  ",
"  $+++++++++++++++++++++++++#              $#             $@+++++++++++++++++++++++$              $+++++++++++++++++++++++++++  ",
"  $++++++++++++++++++++++++++$                           #+++++++++++++++++++++++++#              $++++++++++++++++++++++++++@  ",
"  $+++++++++++++++++++++++++++                         +#++++++++++++++++++++++++++#              $+++++++++++++++++++++++++++  ",
"  #++++++++++++++++++++++++++$                        $#++++++++++++++++++++++++++++$              +++++++++++++++++++++++++++- ",
" $++++++++++++++++++++++++++++>                        +@$$++##+#+++++++++++++++++++$              $++++++++++++++++++++++++++$ ",
" @+++++++++++++++++++++++++++++                                    $+#$+$$$$#+++++++@              #++++++++++++++++++++++++++@ ",
" #++++++++++++++++++++++++++++#                                                $@$###               ++++++++++++++++++++++++++$ ",
" $++++++++++++++++++++++++++++#                                                                     $++++++++++++++++++++++++++ ",
" #++++++++++++++++++++++++++++++                                                                    #++++++++++++++++++++++++++#",
" #++++++++++++++++++++++++++++++                                                                    $+++++++++++++++++++++++++++",
" ++++++++++++++++++++++++++++++$                                                                     ++++++++++++++++++++++++++$",
"$+++++++++++++++++++++++++++++++              @#++$#++@#+                                            #+++++++++++++++++++++++++$",
"++++++++++++++++++++++++++++++++#             @++++++++++#+$#$+##,#                                  ++++++++++++++++++++++++++#",
";+++++++++++++++++++++++++++++++#              ++++++++++++++++++++##+$##@@                           #++++++++++++++++++++++++#",
"+++++++++++++++++++++++++++++++++              +++++++++++++++++++++++++#+            +$              @+++++++++++++++++++++++++",
"++++++++++++++++++++++++++++++++##             ++++++++++++++++++++++++++           $++#              #+++++++++++++++++++++++++",
"+++++++++++++++++++++++++++++++++&              #+++++++++++++++++++++@            +#++$              @+++++++++++++++++++++++++",
"$++++++++++++++++++++++++++++++++$              #+++++++++++++++++++#$           $$+++++               $++++++++++++++++++++++++",
"#++++++++++++++++++++++++++++++++#              #++++++++++++++++++@#           @#++++++,              @++++++++++++++++++++++++",
"++++++++++++++++++++++++++++++++++@             #+++++++++++++++++@            @++++++++#              @++++++++++++++++++++++++",
"$++++++++++++++++++++++++++++++++++              #++++++++++++++#%           ##+++++++++#              #++++++++++++++++++++++++",
"#+++++++++++++++++++++++++++++++++#              $++++++++++++#$            ##++++++++++#               #+++++++++++++++++++++++",
"#+++++++++++++++++++++++++++++++++#              +++++++++++++#           #@+++++++++++++$              ++++++++++++++++++++++++",
"@++++++++++++++++++++++++++++++++++#             $++++++++++$            #+++++++++++++++#              @+++++++++++++++++++++++",
"++++++++++++++++++++++++++++++++++++              ++++++++#@           +$++++++++++++++++#              ++++++++++++++++++++++++",
" +++++++++++++++++++++++++++++++++++              @++++++@+           @+++++++++++++++++++              @++++++++++++++++++++++@",
" #+++++++++++++++++++++++++++++++++#              $++++#$            @+++++++++++++++++++++             $+++++++++++++++++++++# ",
" #++++++++++++++++++++++++++++++++++@             .+++$#           #$++++++++++++++++++++++             $+++++++++++++++++++++# ",
" #+++++++++++++++++++++++++++++++++++              #++            #+++++++++++++++++++++++#              +++++++++++++++++++++@ ",
" $+++++++++++++++++++++++++++++++++++              +$           *+++++++++++++++++++++++++$              #+++++++++++++++++++++ ",
" @+++++++++++++++++++++++++++++++++++@                         $#++++++++++++++++++++++++++              +++++++++++++++++++++$ ",
"  +++++++++++++++++++++++++++++++++++@                       @$+++++++++++++++++++++++++++$              +++++++++++++++++++++$ ",
"  $++++++++++++++++++++++++++++++++++#                       #+*##@$#@@$$$$+@@$+##+#+++++++              #+++++++++++++++++++#  ",
"  #++++++++++++++++++++++++++++++++++#                                               *@@@*$              +++++++++++++++++++++  ",
"  %+++++++++++++++++++++++++++++++++++@                                                                 $++++++++++++++++++++$  ",
"   #++++++++++++++++++++++++++++++++++$                                                                 $+++++++++++++++++++#+  ",
"   #++++++++++++++++++++++++++++++++++$                                                                 #++++++++++++++++++++   ",
"   @+++++++++++++++++++++++++++++++++++                                                                 #+++++++++++++++++++#   ",
"    #+++++++++++++++++++++++++++++++++++                                                                $+++++++++++++++++++@   ",
"    +++++++++++++++++++++++++++++++++++$              @$#$*                                             #++++++++++++++++++#    ",
"    +++++++++++++++++++++++++++++++++++@              #+++++#$#+$$$+$+#$$                              $+++++++++++++++++++#    ",
"     #+++++++++++++++++++++++++++++++++#              $++++++++++++++++++++#+#@@$+@$@$+                @++++++++++++++++++#     ",
"     #+++++++++++++++++++++++++++++++++++             +#+++++++++++++++++++++++++++++++               ##++++++++++++++++++#     ",
"      #+++++++++++++++++++++++++++++++++$              $+++++++++++++++++++++++++++++$                ++++++++++++++++++++$     ",
"      +++++++++++++++++++++++++++++++++++              #+++++++++++++++++++++++++++#+                '#++++++++++++++++++#      ",
"      +++++++++++++++++++++++++++++++++++$             @++++++++++++++++++++++++++$$                 $+++++++++++++++++++#      ",
"       @++++++++++++++++++++++++++++++++++              ++++++++++++++++++++++++##                  +#++++++++++++++++++#       ",
"       &+++++++++++++++++++++++++++++++++@              $++++++++++++++++++++###                    +++++++++++++++++++#$       ",
"        #+++++++++++++++++++++++++++++++++              ++++++++++++++++++#+#.                     ++++++++++++++++++++@        ",
"         #++++++++++++++++++++++++++++++++$             +++++++++++++++$@$                        $#++++++++++++++++++#>        ",
"         $++++++++++++++++++++++++++++++++#              #+++++++++++$-                          @+++++++++++++++++++++         ",
"          @+++++++++++++++++++++++++++++++@              $+++++#@@$                             $++++++++++++++++++++$          ",
"          $$+++++++++++++++++++++++++++++++              #+++$$)                               @+++++++++++++++++++++@          ",
"           #+++++++++++++++++++++++++++++++%              @$                                  @++++++++++++++++++++++           ",
"            @++++++++++++++++++++++++++++++#                                                 ##+++++++++++++++++++++            ",
"            )++++++++++++++++++++++++++++++#                                               @$+++++++++++++++++++++#*            ",
"             +#+++++++++++++++++++++++++++++#                                             ##+++++++++++++++++++++#$             ",
"              ++++++++++++++++++++++++++++++$                                           +#+++++++++++++++++++++++#              ",
"               @++++++++++++++++++++++++++++@                                         @@++++++++++++++++++++++++$               ",
"                $++++++++++++++++++++++++++++                                       #$+++++++++++++++++++++++++#                ",
"                 ++++++++++++++++++++++++++++$                                   #$++++++++++++++++++++++++++++                 ",
"                  #+++++++++++++++++++++++++++                                +$+++++++++++++++++++++++++++++#                  ",
"                  !$+++++++++++++++++++++++++#                            +$##++++++++++++++++++++++++++++++#=                  ",
"                    +++++++++++++++++++++++++#                         ##$+++++++++++++++++++++++++++++++++#                    ",
"                     @++++++++++++++++++++++++#                    ++@++++++++++++++++++++++++++++++++++++$                     ",
"                      $++++++++++++++++++++++++                @$$$++++++++++++++++++++++++++++++++++++++$                      ",
"                       +++++++++++++++++++++++$            .$@+++++++++++++++++++++++++++++++++++++++++##                       ",
"                        @#++++++++++++++++++++#         @$#+++++++++++++++++++++++++++++++++++++++++++#+                        ",
"                         @$++++++++++++++++++++$    +++++++++++++++++++++++++++++++++++++++++++++++++@$                         ",
"                           +#++++++++++++++++++@$$+#+++++++++++++++++++++++++++++++++++++++++++++++#+                           ",
"                            +$++++++++++++++++++++++++++++++++++++++++++++++++++++++++++++++++++++$+                            ",
"                              #++++++++++++++++++++++++++++++++++++++++++++++++++++++++++++++++++#                              ",
"                               -+++++++++++++++++++++++++++++++++++++++++++++++++++++++++++++++#-                               ",
"                                 #$++++++++++++++++++++++++++++++++++++++++++++++++++++++++++@#                                 ",
"                                   ++++++++++++++++++++++++++++++++++++++++++++++++++++++++@$                                   ",
"                                     #$#++++++++++++++++++++++++++++++++++++++++++++++++#$>                                     ",
"                                       $$$+++++++++++++++++++++++++++++++++++++++++++++$@                                       ",
"                                          #@+++++++++++++++++++++++++++++++++++++++++$                                          ",
"                                             #$+++++++++++++++++++++++++++++++++#$+                                             ",
"                                                +@$##+++++++++++++++++++++++@$;&                                                ",
"                                                     -$+$@#+$+####+++@#$##$                                                     ",
"                                                                                                                                "};
